src/images/svg/fire.svg

<svg  viewBox="0 0 22 30" fill="none" xmlns="http://www.w3.org/2000/svg">
<path d="M20.5392 15.5558C20.2734 14.9604 19.9067 14.374 19.3705 13.6967C18.0184 11.9967 17.6059 8.20581 17.6013 8.16945C17.583 7.98763 17.4547 7.83763 17.2851 7.78309C17.1109 7.72854 16.923 7.77854 16.7992 7.9149C15.1859 9.71945 15.8642 12.5058 16.2309 13.6194C16.3317 13.924 16.4417 14.2831 16.5196 14.6467C17.1154 17.5876 15.965 18.9194 15.6946 19.1876C15.4334 19.2604 15.2546 19.224 15.0896 19.0467C14.5213 18.424 14.3334 16.3831 14.5992 13.724C14.6542 13.1831 14.6404 12.6967 14.5625 12.2422C14.0019 8.97386 11.9463 6.8774 11.4229 6.14218C9.98378 4.0149 9.83711 0.473994 9.83253 0.442176C9.82794 0.273994 9.73169 0.123994 9.58044 0.0512668C9.43378 -0.0214604 9.25503 -0.0123695 9.11753 0.083085C6.71586 1.7149 6.92211 5.64672 7.25669 7.84218C7.33461 8.35127 7.48586 8.86945 7.74711 9.524C8.67753 11.8649 7.56378 14.8876 7.55461 14.9149C7.54544 14.9422 7.53628 14.9649 7.53169 14.9922C7.38961 15.7376 7.15128 16.1831 6.88544 16.1831C6.85794 16.1831 6.83044 16.1785 6.79836 16.1694C6.47294 16.1013 6.30336 15.7558 6.29878 15.4558C6.28044 11.5785 2.38919 10.274 2.34794 10.2604C2.17378 10.2058 1.98128 10.2558 1.86211 10.3967C1.73836 10.5376 1.71544 10.7331 1.79794 10.8967C1.84378 10.9922 1.99044 11.4104 1.88961 12.8876C1.80253 14.2149 1.55961 15.5285 1.17003 16.7876C0.244194 19.8058 0.39086 22.6649 0.400027 22.8013C1.11196 30.5425 12.2451 31.899 18.8525 27.5376C19.5767 27.0604 20.1679 26.5149 20.6034 25.9149C23.0417 22.5513 21.6072 17.9831 20.5392 15.5558ZM3.60382 22.9513C3.61757 23.2013 3.42507 23.4149 3.17299 23.4285H3.14549C2.90257 23.4285 2.70091 23.2422 2.68716 23.0013C2.64591 22.3376 2.65507 21.6422 2.70549 20.8876C2.72382 20.6376 2.94382 20.4513 3.19591 20.4649C3.44799 20.483 3.64049 20.7012 3.62216 20.9512C3.57169 21.6695 3.56257 22.324 3.60382 22.9513ZM3.82836 18.924C3.80086 19.1558 3.60378 19.324 3.37461 19.324C3.35628 19.324 3.33794 19.324 3.31503 19.3195C3.06753 19.2876 2.88878 19.0649 2.91628 18.8149L3.13628 17.0604C3.16836 16.8149 3.39294 16.6376 3.64961 16.6649C3.90169 16.6967 4.08044 16.924 4.04836 17.174L3.82836 18.924Z" fill="#FF6B09"/>
</svg>

<svg xmlns="http://www.w3.org/2000/svg" fill="none" viewBox="0 0 22 30"><path fill="#FF6B09" d="M20.54 15.556c-.267-.596-.633-1.182-1.17-1.86-1.352-1.7-1.764-5.49-1.769-5.527a.457.457 0 0 0-.316-.386.465.465 0 0 0-.486.132c-1.613 1.804-.935 4.59-.568 5.704.1.305.21.664.289 1.028.595 2.94-.555 4.272-.825 4.54-.262.073-.44.037-.605-.14-.569-.623-.757-2.664-.49-5.323a5.44 5.44 0 0 0-.037-1.482c-.561-3.268-2.617-5.365-3.14-6.1-1.44-2.127-1.586-5.668-1.59-5.7a.458.458 0 1 0-.715-.36c-2.402 1.633-2.196 5.565-1.861 7.76.078.51.229 1.027.49 1.682.93 2.34-.183 5.364-.192 5.39-.01.028-.019.05-.023.078-.142.746-.38 1.191-.647 1.191a.314.314 0 0 1-.087-.014c-.325-.068-.495-.413-.5-.713-.018-3.877-3.909-5.182-3.95-5.196a.456.456 0 0 0-.486.137.447.447 0 0 0-.064.5c.046.095.192.513.092 1.99a16.978 16.978 0 0 1-.72 3.9C.244 19.807.39 22.666.4 22.802c.712 7.742 11.845 9.098 18.452 4.737.725-.478 1.316-1.023 1.751-1.623 2.439-3.364 1.004-7.932-.064-10.36zM3.603 22.95a.454.454 0 0 1-.431.477h-.028a.456.456 0 0 1-.458-.427c-.041-.663-.032-1.359.018-2.113a.463.463 0 0 1 .49-.423.458.458 0 0 1 .427.486c-.05.718-.06 1.373-.018 2zm.224-4.027a.455.455 0 0 1-.453.4c-.019 0-.037 0-.06-.005a.459.459 0 0 1-.399-.504l.22-1.755a.463.463 0 0 1 .514-.395c.252.032.43.259.398.509l-.22 1.75z"/></svg>
